X:1
T:Beauty and the Beast
T:Beauty and the Beast
C:Alan Menken
Z:Howard Ashman
%%score ( 1 2 ) 3 { ( 4 7 ) | ( 5 6 ) }
L:1/8
Q:1/4=70
M:4/4
K:Eb
V:1 treble nm="Flute" snm="Fl."
V:2 treble 
V:3 treble transpose=-2 nm="Clarinet" snm="Cl."
V:4 treble nm="Piano" snm="Pno."
V:7 treble 
V:5 bass 
V:6 bass 
V:1
!p! [FGB] z z2 [Gg][Aa][Ff][Gg] | [Ee]4 [B,B]4 | [FGB]2 z2 gafg | e4 b4 | z4 (GBde) | A4 z4 | %6
w: ||||Tale as old as|time|
 z4 (GBde) | f4 z4 | z4 (efga) | b4 (bagf) | e4 (agfe) | B4 z4 | z4 (GBde) | A4 z4 | z4 (GBde) | %15
w: True as it can|be|Bare- ly ev- en|friends, Then some- bo- dy|bends Un- ex- pec- ted-|ly|Just a lit- tle|change|Small to say the|
 f4 (gfgb) | e4 (edeg) | A4 (gafg) | e4 z4 | z4 (efga) | b8 | z4 (cdec') | b8 | z4 (efga) | %24
w: least Both a lit- tle|scared Nei- ther one pre-|pared Beau- ty and the|Beast|Ev- er just the|same|Ev- er a sur-|prise|Ev- er as be-|
 b4 (bagf) | e4 (efge) | f8 ||[K:F] z4 (Acef) | B4 z4 | z4 (Acef) | g4 z4 | z4 (fgab) | %32
w: fore Ev- er just as|sure As the sun will|rise|Tale as old as|time|Tune as old as|song|Bit- ter sweet and|
 c'4 (c'bag) | f4 (bagf) | c4 z4 | z4 (Acef) | B4 z4 | z4 (Acef) | g4 (agac') | f4 (fefa) | %40
w: strange Find- ing you can|change Learn- ing you were|wrong|Cer- tain as the|sun|Ris- ing in the|East Tale as old as|time Song as old as|
 B4 (abga) | f4 z4 | !breath!z4[Q:1/4=60] (agac') | f4 (fefa) | B4 (ab!fermata!ga) |[Q:1/4=70] f8 | %46
w: rhyme Beau- ty and the|Beast|Tale as old as|time Song as old as|rhyme Beau- ty and the|Beast|
 f4 c4 | [GAc]2 [GAc]2 [GAc]2 [GAc]2 | [FBc]2 [FBc]2 [FBc]2 [FBc]2 | z2 z C [A,F][B,G][FA][Gc] | %50
w: ||||
 !tenuto![Af]!tenuto![cg]!tenuto![fa]!tenuto![gc'] [af']4 | a/g/a- !fermata!a6 |] %52
w: ||
V:2
 x8 | x8 | x8 | x8 | x8 | x8 | x8 | x8 | x8 | x8 | x8 | x8 | x8 | x8 | x8 | x8 | x8 | x8 | x8 | %19
 x8 | x8 | x8 | x8 | x8 | x8 | x8 | x8 ||[K:F] x8 | x8 | x8 | x8 | x8 | x8 | x8 | x8 | x8 | x8 | %37
 x8 | x8 | x8 | x8 | x8 | x8 | x8 | x8 | x8 | x4 [FB]2 [FB]2 | x8 | x8 | x8 | x8 | f8 |] %52
V:3
[K:F] z8 | z8 | z8 | z8 | z8 | z8 | z8 | z8 | z4!pp! (ABc)d | e4 (edcB) | A4 (dcBA) | C4 z4 | %12
 z4 (FAcA) | D4 z4 | z8 | _E4!p! (AGAc) | D4 (DCDF) | G,4 (FGEF) | C4 z4 | z8 | z2 z2 G2 E2 | %21
!pp! B,4 (FGAf) | e4 z4 | z8 | z (EAc) e4 | A8 | B,2 G,2 F,2 G,2 ||[K:G] z8 | z8 | z8 | z8 | z8 | %32
 z8 | z8 | z8 | z8 | z8 | z8 | z8 | z8 | z8 | z8 | z8 | z8 | z8 | z8 | z8 | z8 | z8 | z8 | z8 | %51
 z8 |] %52
V:4
!p! [FGB] z z2 [Gg][Aa][Ff][Gg] | [Ee]4 [B,B]4 | [FGB]2 z2 gafg | e4 b4 | %4
!mp! [FGB]2 [FGB]B, [EG]B[GBd]e | [EA]2 [EA]B, [Ac]d[Ad]e | [GBf]2 [FGB]B, [EG]B[EGd]e | %7
 [Aef]2 [EAB]B, [EA]2 [DA]2 | [FG]2 [FG]B, [GBe]f[Beg]a | [dg]2 [dg]B [dgb]a[Bdg]f | %10
 [Bc]2 [Bc]E [cea]gfe | [EA]2 [EA]B, [Acg]a[Af]e | [FG]2 [FG]B, [EG]B[EGd]e | %13
 [EA]2 [EA]B, [Ag]f[Ae]d | [FG]2 [FG]B, [EG]B[EGd]e | [A_d]2 [Ad]F [Bdg]f[Bdg]b | %16
 [Gc]2 [Gc]2 [Gce]d[FBe]g | [EA]CEA [eg]a[df]g | [Ge]2 [FGB]E [FGB]2 [FGB]E | %19
 [EAB]2 [EAB]B, [Ee][Ff][Gg][Aa] | [Bdgb]4 D3 B | [EAB]4 cde[cc'] | [Bdgb]3 D D3 B | %23
 [AB]4 ef[eg]a | [db]4 bagf | c4 B4 | f4 A2"^con\ninappropriatezza" [GBe]b ||[K:F] [cfac']4 Acef | %28
 [FB]4 [EG]AAB | [GA]3 F [CA]cef | [Bcg]4 [Beg]aab | [cfga]4 [Af]g[ca]b | %32
 [ceac']4 [cc'][Bb][Aa][Gg] | [FBcf]4 [Bdfb][Aa][Gg][Ff] | [DFc]4 [Bea]ggf | [GAc]4 Acef | %36
 [FB]4 [Ba]ggf | [GAc]4 Acef | g4 [c_ea]g[cea]c' | [FAdf]4 [FAdf]e[Gcf]a | [DFB]4 [Aa]b[Gg]a | %41
 f4 ABGA | F4 [fa]g[ea]c' | [df]4 [df]e[cf]a | [FB]4 [fa]b[eg]a | f4 abga | f4 c4 | %47
 [GAc]2 [GAc]2 [GAc]2 [GAc]2 | [FBc]2 [FBc]2 [FBc]2 [FBc]2 | z2 z C [A,F][B,G][FA][Gc] | %50
 !tenuto![Af]!tenuto![cg]!tenuto![fa]!tenuto![gc'] [af']4 | a/g/a- !fermata!a6 |] %52
V:5
!ped! z2[K:treble] [FGB]B, [FGB]2 [FGB]B,!ped-up! | [FGB]2 [FGB]B, [FGB]2 [FGB]B, | %2
[K:bass]!ped! z2[K:treble] [FGB]B, [FGB]2 [FGB]B,!ped-up! | [FGB]2 [FGB]B, [FGB]2 [FGB]B, | %4
[K:bass]!ped! E,,8!ped-up! |!ped! B,,8!ped-up! |!ped! E,,8!ped-up! | B,,8 |!ped! E,,8!ped-up! | %9
 G,,8 | A,,8 | B,,8 |!ped! E,,8!ped-up! | B,,8 |!ped! E,,8!ped-up! | B,,4 E,2 E,,2 | %16
 A,,3 E, [A,,A,]2 [G,,G,]2 |!ped! [F,,F,]4 B,,4!ped-up! | E,,3 B,, G,A,F,G, | %19
!ped! [B,,E,]4 B,,2 B,,2!ped-up! | G,,D,G,B, z B, G,D, | A,,E,A,C ECA,E, | G,,D,G,B, z B, G,D, | %23
 A,,E,A,C ECB,A, |!ped! [G,,G,]8!ped-up! | C,8 | _D,2 _D4 E,,2 ||[K:F] F,,3 F,, F,,4 | C,3 C, C,4 | %29
 F,,3 F,, F,,4 | C,3 C, C,4 | F,,3 F,, F,,4 | A,,3 A,, A,,4 | B,,3 B,, B,,4 | C,3 C, C,4 | %35
 F,,3 F,, F,,4 | C,4 C,4 | F,,3 F,, F,,4 | C,4 F,,2 F,,2 | B,,F,A,D [B,,B,]2 [A,,A,]2 | %40
 G,,D,G,B, F2 E2 | [F,F]4 F,2 E,2 | [D,A,]4 A4 | [B,F]4 [B,F]2 [A,E]2 | [G,D]4 !fermata![C,B,]3 z | %45
[K:treble] [GAc]2 [GAc]2 [GAc]2 [GAc]2 | [FBc]2 [FBc]2[K:bass] C,2 D2 | (C8 | [F,C]4) C4 | %49
 (([F,,C,]8 | [F,,C,]8)) |[K:treble] [Fc]8 |] %52
V:6
 E,,8[K:treble] | x8 |[K:bass] E,,8[K:treble] | x8 |[K:bass] x8 | x8 | x8 | x8 | x8 | x8 | x8 | %11
 x8 | x8 | x8 | x8 | x8 | x8 | x8 | x8 | x8 | x8 | x8 | x8 | x8 | x8 | z G, CE z G, CE | x8 || %27
[K:F] x8 | x8 | x8 | x8 | x8 | x8 | x8 | x8 | x8 | x8 | x8 | x8 | x8 | x4 C4 | x8 | x4 D2 C2 | x8 | %44
 x8 |[K:treble] x8 | x4[K:bass] x4 | z4 A,B,G,A, | x8 | x8 | x8 |[K:treble] x8 |] %52
V:7
 x8 | x8 | x8 | x8 | x8 | x8 | x8 | x4 c3 d | B4 x4 | b4 x4 | e4 z4 | B4 z4 | B4 x4 | x8 | B4 x4 | %15
 f4 x4 | e4 x4 | x4 A4 | x8 | x8 | x8 | x8 | x8 | E4 c2 z2 | z DGB DGBd | e4 efge | x8 ||[K:F] x8 | %28
 x8 | x8 | x8 | x8 | x8 | x8 | x8 | x8 | x8 | x8 | [B_e]2 [Be]2 x4 | x8 | x8 | [ABd]2 [GAc]2 x4 | %42
 x8 | x8 | x8 | x8 | x4 [FB]2 [FB]2 | x8 | x8 | x8 | x8 | f8 |] %52

